Pods/ProtonCore-UIFoundations/libraries/UIFoundations/Sources/Assets.xcassets/Images/IconSet/ic-reply.imageset/ic-reply.svg

<svg width="24" height="24" viewBox="0 0 24 24" fill="none" xmlns="http://www.w3.org/2000/svg">
<path fill-rule="evenodd" clip-rule="evenodd" d="M11.5303 3.06333C11.2579 2.94366 10.9404 2.9964 10.7213 3.19775L1.74256 11.4477C1.58798 11.5898 1.5 11.7901 1.5 12C1.5 12.2099 1.58798 12.4103 1.74256 12.5523L10.7213 20.8023C10.9404 21.0036 11.2579 21.0564 11.5303 20.9367C11.8028 20.817 11.9787 20.5476 11.9787 20.25L11.9788 15.7203C13.5888 15.7365 17.7747 16.238 21.0795 20.6672C21.2349 20.8754 21.4912 20.9975 21.7632 20.9733C21.9057 20.9606 22.0738 20.9041 22.2163 20.7707C22.365 20.6315 22.4386 20.4525 22.4541 20.2845C22.4782 20.0246 22.5889 18.6212 22.3445 16.902C22.102 15.1961 21.4959 13.0789 20.0069 11.4876C18.6648 10.0533 16.8219 9.26836 15.2234 8.83203C13.9113 8.47385 12.7111 8.33642 11.9788 8.28347L11.9787 3.75001C11.9787 3.45243 11.8028 3.18299 11.5303 3.06333ZM10.4788 5.45766L10.4788 8.70002C10.4788 9.27226 10.9313 9.73328 11.4931 9.75754C12.0471 9.78148 13.3665 9.88002 14.8284 10.2791C16.3007 10.681 17.8395 11.3667 18.9116 12.5125C20.0967 13.7789 20.6358 15.5403 20.8594 17.1131C20.9155 17.5077 20.9509 17.8842 20.9721 18.2296C17.0994 14.2415 12.6419 14.1698 11.4541 14.2307C10.8783 14.2602 10.4788 14.7408 10.4788 15.265L10.4788 18.5424L3.35849 12L10.4788 5.45766Z" fill="#0C0C14"/>
</svg>

<svg xmlns="http://www.w3.org/2000/svg" width="24" height="24" viewBox="0 0 24 24">
  <g class="ic-reply">
    <path fill-rule="evenodd" d="M11.53 3.063a.75.75 0 0 0-.809.135l-8.978 8.25a.75.75 0 0 0 0 1.104l8.978 8.25a.75.75 0 0 0 1.258-.552v-4.53c1.61.016 5.796.518 9.1 4.947a.769.769 0 0 0 1.137.104.761.761 0 0 0 .238-.486c.024-.26.135-1.664-.11-3.383-.242-1.706-.848-3.823-2.337-5.414-1.342-1.435-3.185-2.22-4.784-2.656a17.35 17.35 0 0 0-3.244-.549V3.75a.75.75 0 0 0-.449-.687Zm-1.05 2.395V8.7a1.06 1.06 0 0 0 1.014 1.058c.554.023 1.873.122 3.335.521 1.473.402 3.012 1.088 4.084 2.233 1.185 1.267 1.724 3.028 1.947 4.601.056.395.092.771.113 1.117-3.873-3.989-8.33-4.06-9.518-4a1.03 1.03 0 0 0-.975 1.035v3.277L3.359 12l7.12-6.542Z" class="Icon"/>
  </g>
</svg>
